!!!OTL: Neujahrwunsch.
!!!OTL-incipit:SAMMELT EUCH IN TRAUTE REIHN
!!!ARE: Europa, Mitteleuropa, Deutschland
!!!SCT: F0289
!!!TXL: @@DE
!!!YEM: Copyright 1995, estate of Helmut Schaffrath.
**kern	**text
*ICvox	*
*clefG2	*
*M3/8	*
*k[]	*
*C:	*
=1	=1
!LO:TX:a:t=Mäßig.	!
!LO:TX:a:t=P:only the highest voice encoded:problem	!
{8cc/L	1._Sammelt
8eeJ	.
8cc/	.
=2	=2
4g	euch
8g	in
=3	=3
8cc/L	trau-
8eeJ	.
8cc/	-te
=4	=4
4g	Reih'n,
8r}	.
=5	=5
{4cc/	laßt
8g	uns
=6	=6
4a	Al-
8dd/	-le
=7	=7
8b/L	fröh-
8aJ	.
8b/	-lich
=8	=8
4cc/	ſein!
8r}	.
=9	=9
{4dd/	Von
8dd/	dem
=10	=10
4ee/	Himmel
8cc/	.
=11	=11
4b/	ſen-
8cc/	-ket
=12	=12
(8ddL	wie-
8bJ)	.
8g}	-der
=13	=13
{(8ddL	ſich
8cc#J)	.
8dd	ein
=14	=14
4ee/	neu-
8cc/	-es
=15	=15
4b/	Jahr
8cc/	her-
=16	=16
(8ddL	-nie-
8bJ)	.
8g}	-der.
=17	=17
!LO:TX:a:t=Das zweite Mal Alle.	!
{4cc/	Auſ,
8cc/	be-
=18	=18
4ee/	-grüßt
8ee/	die
=19	=19
4a	neu-
8cc/	-e
=20	=20
4.ff/}	Ʒeit,
=21	=21
{8ff/L	die
8eeJ	.
8dd/	des
=22	=22
4cc/	Le-
8cc/	-bens
=23	=23
8cc/L	Herr
8ddJ	.
8b/	uns
=24	=24
4cc/	beut!
8r}	.
=25	=25
{4cc/	Auſ,
8cc/	be-
=26	=26
4ee/	-grüßt
8ee/	die
=27	=27
4a	neu-
8cc/	-e
=28	=28
4.ff/}	Ʒeit,
=29	=29
{8ff/L	die
8eeJ	.
8dd/	des
=30	=30
4cc/	Le-
8cc/	-bens
=31	=31
8cc/L	Herr
8ddJ	.
8b/	uns
=32	=32
4cc/	beut!
8r}	.
==	==
!!!AGN: Jugend - Lied, patriotisch, Neujahr
!!!ONB: ESAC (Essen Associative Code) Database: FINK
!!!AMT: simple triple
!!!AIN: vox
!!!EED: Helmut Schaffrath
!!!EEV: 1.0
!!!GTL: Jugendlieder
!!!source: Musikalischer Hausschatz der Deutschen. Eine Sammlung von über 1000 Liedern und Gesängen mit Singstimmen und Klavierbegleitung. Leipzig, Litterarisches Verlags-Haus.
!!!page: 172
!!!URL-scan: https://www.digitale-sammlungen.de/en/view/bsb11144622?page=170,171
!!!ENC: Anna Maria Matuszewska
!!!EEV: 2024/07/30
*-	*-